X:508
T:B508-  When Love with Unconfined Wings
S:Evidence is not solid that this is original tune
Q:1/4=120
L:1/4
M:C|
K:G mixolydian
zBB3/2c/|d^FG/A/ B/c/|d2dA/B/|A3/2G/(^F2|^F)GAB|\
cd^c3/2A/|e3^f|gB^c3/2d/|d4|\
L:1/4
M:6/4
de^f(g3/2f/ e/)d/|(^f3/2e/ d/)c/BAf/e/|d/e/^c3/2d/e3|\
d^feg3/2d/ e3/4f/4|g3/2B/cE^F3/2G/|G6|]

